!!!COM:	Josquin des Pres
**kern	**kern
*part2	*part1
*staff2	*staff1
*clefGv2	*clefG2
*k[b-]	*k[b-]
*M2/1	*M2/1
=1-	=1-
0r	1.c
.	2d
=2	=2
0r	1e
.	1f
=3	=3
0r	1g
.	1a
=4	=4
1.F	2r
.	1a
2G	2g
=5	=5
1A	2f
.	2e
1B-	1d
=6	=6
1c	4c
.	4d
.	4e
.	4c
1d	1f
=7	=7
2r	4f
.	4g
1d	4a
.	4f
.	2b-
2c	[2a
=8	=8
2B-	4a]
.	4g
2A	1f
1G	.
.	2e
=9	=9
0F	0f
==	==
*-	*-
